packages/tokens/icons/videoTutorial/size16Px.svg

<svg viewBox="0 0 16 16" fill="none" xmlns="http://www.w3.org/2000/svg" width="1em" height="1em"><rect x="1.5" y="2.5" width="13" height="11" rx="1.5" stroke="currentColor"/><path d="M3.5 11.5H12.5" stroke="currentColor" stroke-linecap="round"/><path d="M11.75 11.5C11.75 11.9142 11.4142 12.25 11 12.25C10.5858 12.25 10.25 11.9142 10.25 11.5C10.25 11.0858 10.5858 10.75 11 10.75C11.4142 10.75 11.75 11.0858 11.75 11.5Z" stroke="currentColor" stroke-width="0.5"/><path d="M3.99473 6.02437C3.76532 5.93985 3.7811 5.61024 4.01753 5.54802L7.87275 4.53349C7.95617 4.51154 8.04384 4.51154 8.12725 4.53349L11.9825 5.54802C12.2189 5.61024 12.2347 5.93985 12.0053 6.02437L8.17285 7.43632C8.06128 7.47742 7.93872 7.47742 7.82715 7.43632L3.99473 6.02437Z" stroke="currentColor" stroke-linejoin="round"/><path d="M11.5 6.08594V7.76532" stroke="currentColor" stroke-linecap="round"/><path d="M6 7V9C6 9.27614 6.22386 9.5 6.5 9.5H9.5C9.77614 9.5 10 9.27614 10 9V7" stroke="currentColor" stroke-linecap="round" stroke-linejoin="round"/></svg>

<svg xmlns="http://www.w3.org/2000/svg" fill="none" viewBox="0 0 16 16" width="1em" height="1em"><rect width="13" height="11" x="1.5" y="2.5" stroke="currentColor" rx="1.5"/><path stroke="currentColor" stroke-linecap="round" d="M3.5 11.5h9"/><path stroke="currentColor" stroke-width=".5" d="M11.75 11.5a.75.75 0 1 1-1.5 0 .75.75 0 0 1 1.5 0Z"/><path stroke="currentColor" stroke-linejoin="round" d="M3.995 6.024a.25.25 0 0 1 .023-.476l3.855-1.015a.5.5 0 0 1 .254 0l3.855 1.015a.25.25 0 0 1 .023.476L8.173 7.436a.5.5 0 0 1-.346 0L3.995 6.024Z"/><path stroke="currentColor" stroke-linecap="round" d="M11.5 6.086v1.68"/><path stroke="currentColor" stroke-linecap="round" stroke-linejoin="round" d="M6 7v2a.5.5 0 0 0 .5.5h3A.5.5 0 0 0 10 9V7"/></svg>
